src/assets/copy.svg

<svg width="22" height="25" viewBox="0 0 22 25" fill="none" xmlns="http://www.w3.org/2000/svg">
<path d="M13.2324 25H3.90625C1.75228 25 0 23.2477 0 21.0938V7.86133C0 5.70736 1.75228 3.95508 3.90625 3.95508H13.2324C15.3864 3.95508 17.1387 5.70736 17.1387 7.86133V21.0938C17.1387 23.2477 15.3864 25 13.2324 25ZM3.90625 5.9082C2.82936 5.9082 1.95312 6.78444 1.95312 7.86133V21.0938C1.95312 22.1706 2.82936 23.0469 3.90625 23.0469H13.2324C14.3093 23.0469 15.1855 22.1706 15.1855 21.0938V7.86133C15.1855 6.78444 14.3093 5.9082 13.2324 5.9082H3.90625ZM21.0449 18.6523V3.90625C21.0449 1.75228 19.2926 0 17.1387 0H6.29883C5.75943 0 5.32227 0.437164 5.32227 0.976562C5.32227 1.51596 5.75943 1.95312 6.29883 1.95312H17.1387C18.2156 1.95312 19.0918 2.82936 19.0918 3.90625V18.6523C19.0918 19.1917 19.529 19.6289 20.0684 19.6289C20.6078 19.6289 21.0449 19.1917 21.0449 18.6523Z" fill="#FEFEFE"/>
</svg>

<svg width="22" height="25" fill="none" xmlns="http://www.w3.org/2000/svg"><path d="M13.232 25H3.906A3.91 3.91 0 010 21.094V7.86a3.91 3.91 0 013.906-3.906h9.326a3.91 3.91 0 013.907 3.906v13.233A3.91 3.91 0 0113.232 25zM3.906 5.908a1.955 1.955 0 00-1.953 1.953v13.233c0 1.077.876 1.953 1.953 1.953h9.326a1.955 1.955 0 001.954-1.953V7.86a1.955 1.955 0 00-1.954-1.953H3.906zm17.139 12.744V3.906A3.91 3.91 0 0017.139 0H6.299a.976.976 0 100 1.953h10.84c1.077 0 1.953.876 1.953 1.953v14.746a.977.977 0 101.953 0z" fill="#FEFEFE"/></svg>
